!!!OTL: Schwabentoechterlein
!!!ARE: Europa, Mitteleuropa, Deutschland
!!!SCT: A0052
!!!YEM: Copyright 1995, estate of Helmut Schaffrath.
**kern
*ICvox
*Ivox
*M4/2
*k[f#]
*G:
=1
{1g
2g
2g
=2
1a
1g
=3
1cc
1b
=4
1cc
2r}
{2cc
=5
1cc
1cc
=6
2.b
4a
1g
=7
1a
1a
=8
1dd
2r}
{2dd
=9
2.cc
4b
2a
2g
=10
1a
1g
=11
2dd
2dd
2.dd
4cc
=12
1b
2a
2a
=13
0g}
==
!!!AGN: Romanze, Ballade, Lied
!! Melodie bei Joh. Ott 1544 No. 45.
!!!ONB: ESAC (Essen Associative Code) Database: ALTDEU
!!!AMT: simple quadruple
!!!AIN: vox
!!!EED: Helmut Schaffrath
!!!EEV: 1.0
*-
